app/assets/images/payment_icons/checkout_finance.svg

<svg xmlns="http://www.w3.org/2000/svg" viewBox="0 0 38 24" width="38" height="24" role="img" aria-labelledby="pi-checkout_finance"><title id="pi-checkout_finance">Checkout Finance</title><rect width="38" height="24" fill="white"/><path d="M5.12148 16.2116C4.77236 16.0272 4.4993 15.7709 4.29939 15.4436C4.09947 15.1162 4 14.7466 4 14.3338C4 13.921 4.09947 13.5514 4.29939 13.224C4.4993 12.8967 4.77333 12.6403 5.12148 12.456C5.46962 12.2717 5.86263 12.1795 6.29757 12.1795C6.66424 12.1795 6.99581 12.2429 7.29227 12.3696C7.58873 12.4963 7.83741 12.6787 8.03927 12.9168L7.41027 13.488C7.12356 13.1626 6.76956 13.0003 6.34633 13.0003C6.084 13.0003 5.85093 13.057 5.64516 13.1703C5.43939 13.2835 5.27946 13.441 5.16439 13.6435C5.04931 13.8461 4.99178 14.0755 4.99178 14.3338C4.99178 14.592 5.04931 14.8215 5.16439 15.024C5.27946 15.2266 5.43939 15.384 5.64516 15.4973C5.85093 15.6106 6.084 15.6672 6.34633 15.6672C6.76956 15.6672 7.12454 15.5031 7.41027 15.1728L8.03927 15.744C7.83741 15.986 7.58776 16.1703 7.28935 16.298C6.99093 16.4247 6.65839 16.4881 6.29172 16.4881C5.86068 16.4881 5.4706 16.3959 5.12148 16.2116Z" fill="#2A3156"/><path d="M11.5247 13.5235C11.7724 13.7616 11.8962 14.1149 11.8962 14.5834V16.417H10.9532V14.7264C10.9532 14.473 10.8966 14.2829 10.7835 14.1581C10.6704 14.0333 10.5075 13.9709 10.294 13.9709C10.056 13.9709 9.86684 14.0429 9.72544 14.1879C9.58403 14.3328 9.51382 14.5479 9.51382 14.8339V16.417H8.5708V12.001H9.51382V13.5485C9.63864 13.4256 9.7898 13.3315 9.96729 13.2653C10.1448 13.2 10.3379 13.1674 10.5475 13.1674C10.9513 13.1664 11.277 13.2855 11.5247 13.5235Z" fill="#2A3156"/><path fill-rule="evenodd" clip-rule="evenodd" d="M13.4331 15.0778H15.8935C15.9052 14.9232 15.911 14.8397 15.911 14.8272C15.911 14.4931 15.8379 14.2013 15.6906 13.9488C15.5434 13.6973 15.3405 13.5043 15.0831 13.369C14.8247 13.2336 14.537 13.1664 14.2181 13.1664C13.8914 13.1664 13.5969 13.2365 13.3326 13.3776C13.0683 13.5187 12.8606 13.7155 12.7095 13.9671C12.5583 14.2186 12.4832 14.5018 12.4832 14.8148C12.4832 15.1325 12.5603 15.4167 12.7134 15.6663C12.8665 15.9168 13.0849 16.1117 13.3667 16.2528C13.6486 16.394 13.9733 16.464 14.34 16.464C14.928 16.464 15.3757 16.2922 15.6819 15.9466L15.1796 15.4109C15.0665 15.5184 14.9446 15.5962 14.8139 15.6461C14.6833 15.696 14.5331 15.721 14.3634 15.721C14.1176 15.721 13.9129 15.6634 13.7471 15.5482C13.5823 15.433 13.4769 15.2765 13.4331 15.0778ZM13.4204 14.5354C13.4525 14.3299 13.5413 14.1667 13.6866 14.0477C13.8309 13.9287 14.0104 13.8691 14.2239 13.8691C14.4336 13.8691 14.6111 13.9296 14.7564 14.0506C14.9017 14.1715 14.9904 14.3328 15.0226 14.5354H13.4204Z" fill="#2A3156"/><path d="M17.1175 16.2528C16.8415 16.1117 16.626 15.9168 16.4709 15.6663C16.3158 15.4167 16.2378 15.1325 16.2378 14.8148C16.2378 14.497 16.3149 14.2138 16.4709 13.9632C16.626 13.7136 16.8415 13.5178 17.1175 13.3767C17.3934 13.2355 17.7045 13.1655 18.0517 13.1655C18.394 13.1655 18.6934 13.2355 18.9499 13.3767C19.2054 13.5178 19.3926 13.7194 19.5086 13.9805L18.7772 14.3674C18.6076 14.0736 18.3638 13.9267 18.0458 13.9267C17.8001 13.9267 17.5963 14.0064 17.4354 14.1648C17.2745 14.3232 17.1935 14.5402 17.1935 14.8138C17.1935 15.0874 17.2745 15.3044 17.4354 15.4628C17.5963 15.6212 17.8001 15.7008 18.0458 15.7008C18.3686 15.7008 18.6124 15.554 18.7772 15.2602L19.5086 15.6528C19.3916 15.9072 19.2054 16.105 18.9499 16.248C18.6943 16.3911 18.395 16.4621 18.0517 16.4621C17.7045 16.4641 17.3934 16.394 17.1175 16.2528Z" fill="#2A3156"/><path d="M21.3643 15.1604L20.9109 15.601V16.416H19.9679V12H20.9109V14.4999L22.2888 13.2144H23.4132L22.0587 14.5719L23.5342 16.417H22.3912L21.3643 15.1604Z" fill="#2A3156"/><path fill-rule="evenodd" clip-rule="evenodd" d="M23.7468 15.6663C23.8999 15.9168 24.1125 16.1117 24.3846 16.2528C24.6566 16.394 24.9648 16.4641 25.3071 16.4641C25.6494 16.4641 25.9556 16.394 26.2257 16.2528C26.4959 16.1117 26.7075 15.9159 26.8606 15.6663C27.0137 15.4157 27.0907 15.1325 27.0907 14.8148C27.0907 14.497 27.0137 14.2128 26.8606 13.9632C26.7075 13.7127 26.4959 13.5178 26.2257 13.3767C25.9556 13.2355 25.6504 13.1655 25.3071 13.1655C24.9638 13.1655 24.6566 13.2355 24.3846 13.3767C24.1125 13.5178 23.8999 13.7136 23.7468 13.9632C23.5937 14.2138 23.5166 14.497 23.5166 14.8148C23.5166 15.1325 23.5937 15.4167 23.7468 15.6663ZM26.136 14.8157C26.136 15.0855 26.058 15.3015 25.9029 15.4618C25.7469 15.6221 25.5489 15.7028 25.3071 15.7028C25.0652 15.7028 24.8653 15.6221 24.7083 15.4618C24.5513 15.3005 24.4723 15.0855 24.4723 14.8157C24.4723 14.546 24.5513 14.33 24.7083 14.1696C24.8653 14.0093 25.0652 13.9287 25.3071 13.9287C25.5489 13.9287 25.7479 14.0093 25.9029 14.1696C26.058 14.3309 26.136 14.546 26.136 14.8157Z" fill="#2A3156"/><path d="M30.936 13.2144V16.417H30.0407V16.0359C29.9159 16.1751 29.7667 16.2807 29.5931 16.3546C29.4195 16.4276 29.2323 16.465 29.0304 16.465C28.6033 16.465 28.2649 16.344 28.0143 16.1021C27.7646 15.8602 27.6398 15.5012 27.6398 15.025V13.2144H28.5828V14.8867C28.5828 15.4023 28.8022 15.6605 29.2421 15.6605C29.4673 15.6605 29.6487 15.5885 29.7862 15.4436C29.9237 15.2986 29.992 15.0835 29.992 14.7975V13.2144H30.936Z" fill="#2A3156"/><path d="M33.8498 16.2615C33.7572 16.3287 33.6431 16.3796 33.5085 16.4132C33.3739 16.4468 33.2315 16.464 33.0823 16.464C32.6952 16.464 32.3958 16.3671 32.1842 16.1722C31.9726 15.9783 31.8672 15.6922 31.8672 15.3149V13.9997H31.365V13.2855H31.8672V12.5059H32.8103V13.2855H33.6207V13.9997H32.8103V15.3034C32.8103 15.4388 32.8454 15.5424 32.9156 15.6154C32.9858 15.6893 33.0862 15.7258 33.215 15.7258C33.3642 15.7258 33.491 15.6864 33.5963 15.6068L33.8498 16.2615Z" fill="#2A3156"/><path d="M7.44379 19.1684V20.2695H9.40296V21.0433H7.44379V22.5611H6.46469V18.3946H9.66334V19.1684H7.44379Z" fill="#2A3156"/><path fill-rule="evenodd" clip-rule="evenodd" d="M10.0261 18.3946C10.0261 18.5415 10.0797 18.6644 10.189 18.7633C10.2982 18.8622 10.4396 18.9121 10.6122 18.913C10.7858 18.913 10.9262 18.8622 11.0354 18.7614C11.1437 18.6605 11.1983 18.5319 11.1983 18.3773C11.1983 18.2343 11.1446 18.1153 11.0354 18.0202C10.9262 17.9252 10.7858 17.8772 10.6122 17.8772C10.4386 17.8772 10.2982 17.9271 10.189 18.026C10.0807 18.1249 10.0261 18.2477 10.0261 18.3946ZM11.0841 19.3585H10.1411V22.5611H11.0841V19.3585Z" fill="#2A3156"/><path d="M14.8544 19.6676C15.1021 19.9057 15.2259 20.259 15.2259 20.7274V22.5611H14.2829V20.8705C14.2829 20.617 14.2263 20.427 14.1132 20.3022C14.0001 20.1774 13.8372 20.115 13.6237 20.115C13.3857 20.115 13.1965 20.187 13.0551 20.3319C12.9137 20.4769 12.8435 20.6919 12.8435 20.978V22.5611H11.9005V19.3585H12.8016V19.7338C12.9264 19.5994 13.0814 19.4948 13.2667 19.4218C13.452 19.3489 13.6558 19.3114 13.8772 19.3114C14.28 19.3105 14.6057 19.4295 14.8544 19.6676Z" fill="#2A3156"/><path fill-rule="evenodd" clip-rule="evenodd" d="M18.8956 20.7332C18.8956 20.257 18.7611 19.9009 18.4909 19.6647C18.2208 19.4286 17.8336 19.3105 17.3285 19.3086C17.0671 19.3086 16.8116 19.3422 16.5639 19.4094C16.3162 19.4775 16.1036 19.5726 15.9262 19.6954L16.2646 20.3444C16.3816 20.2532 16.523 20.1812 16.6907 20.1274C16.8585 20.0737 17.0281 20.0468 17.2017 20.0468C17.4523 20.0468 17.6396 20.1015 17.7644 20.211C17.8892 20.3204 17.9516 20.4759 17.9516 20.6785H17.2017C16.7258 20.6785 16.3738 20.7639 16.1466 20.9348C15.9193 21.1057 15.8052 21.3399 15.8052 21.6375C15.8052 21.8247 15.854 21.9908 15.9505 22.1377C16.0471 22.2846 16.1875 22.3998 16.3709 22.4833C16.5542 22.5668 16.7717 22.6081 17.0213 22.6081C17.505 22.6081 17.8356 22.4593 18.0131 22.1617V22.5601H18.8956V20.7332ZM17.9526 21.5492C17.8999 21.6923 17.8112 21.8007 17.6863 21.8737C17.5615 21.9467 17.4182 21.9831 17.2582 21.9841C17.0924 21.9841 16.9627 21.9495 16.8681 21.8804C16.7735 21.8103 16.7258 21.7163 16.7258 21.5972C16.7258 21.3467 16.9189 21.2218 17.306 21.2218H17.9526V21.5492Z" fill="#2A3156"/><path d="M22.6413 19.6676C22.889 19.9057 23.0128 20.259 23.0128 20.7274V22.5611H22.0698V20.8705C22.0698 20.617 22.0132 20.427 21.9001 20.3022C21.787 20.1774 21.6241 20.115 21.4106 20.115C21.1726 20.115 20.9834 20.187 20.842 20.3319C20.7006 20.4769 20.6304 20.6919 20.6304 20.978V22.5611H19.6874V19.3585H20.5885V19.7338C20.7133 19.5994 20.8683 19.4948 21.0536 19.4218C21.2389 19.3489 21.4427 19.3114 21.6641 19.3114C22.0678 19.3105 22.3936 19.4295 22.6413 19.6676Z" fill="#2A3156"/><path d="M24.4795 22.3969C24.2036 22.2558 23.988 22.0609 23.833 21.8103C23.6779 21.5607 23.5999 21.2766 23.5999 20.9588C23.5999 20.6411 23.677 20.3579 23.833 20.1073C23.988 19.8577 24.2036 19.6618 24.4795 19.5207C24.7555 19.3796 25.0666 19.3095 25.4138 19.3095C25.7561 19.3095 26.0555 19.3796 26.3119 19.5207C26.5674 19.6618 26.7547 19.8634 26.8717 20.1246L26.1403 20.5115C25.9706 20.2177 25.7268 20.0708 25.4089 20.0708C25.1632 20.0708 24.9593 20.1505 24.7984 20.3089C24.6375 20.4673 24.5566 20.6843 24.5566 20.9579C24.5566 21.2315 24.6375 21.4484 24.7984 21.6068C24.9593 21.7652 25.1632 21.8449 25.4089 21.8449C25.7317 21.8449 25.9755 21.698 26.1403 21.4043L26.8717 21.7969C26.7547 22.0513 26.5684 22.2491 26.3119 22.3921C26.0564 22.5352 25.7571 22.6062 25.4138 22.6062C25.0666 22.6081 24.7555 22.538 24.4795 22.3969Z" fill="#2A3156"/><path fill-rule="evenodd" clip-rule="evenodd" d="M28.0195 21.2219H30.48C30.4926 21.0673 30.4985 20.9838 30.4985 20.9713C30.4985 20.6372 30.4254 20.3454 30.2781 20.0929C30.1308 19.8414 29.928 19.6484 29.6706 19.513C29.4121 19.3777 29.1235 19.3105 28.8056 19.3105C28.4798 19.3105 28.1844 19.3806 27.9201 19.5217C27.6558 19.6628 27.4481 19.8596 27.2969 20.1111C27.1458 20.3626 27.0697 20.6459 27.0697 20.9588C27.0697 21.2766 27.1467 21.5607 27.2998 21.8103C27.453 22.0609 27.6714 22.2558 27.9532 22.3969C28.2351 22.538 28.5598 22.6081 28.9265 22.6081C29.5145 22.6081 29.9621 22.4363 30.2684 22.0907L29.7661 21.555C29.653 21.6625 29.5311 21.7403 29.4004 21.7902C29.2697 21.8401 29.1196 21.8651 28.9499 21.8651C28.7041 21.8651 28.4984 21.8075 28.3336 21.6923C28.1688 21.5771 28.0634 21.4206 28.0195 21.2219ZM28.0068 20.6794C28.039 20.474 28.1277 20.3108 28.273 20.1918C28.4183 20.0727 28.5978 20.0132 28.8104 20.0132C29.02 20.0132 29.1975 20.0737 29.3428 20.1946C29.4881 20.3156 29.5769 20.4769 29.6091 20.6794H28.0068Z" fill="#2A3156"/><path fill-rule="evenodd" clip-rule="evenodd" d="M22.6589 1.88235H15.2234C15.0352 1.88235 14.8824 2.03515 14.8824 2.22343V9.65892C14.8824 9.8472 15.0352 10 15.2234 10H22.6589C22.8472 10 23 9.8472 23 9.65892V2.22343C23 2.03515 22.8472 1.88235 22.6589 1.88235ZM20.3751 7.21388C20.7073 6.88167 20.8977 6.441 20.912 5.97236C20.9127 5.95326 20.9127 5.93347 20.9127 5.91437C20.9127 5.72678 21.0655 5.57466 21.2531 5.57466C21.3472 5.57466 21.4318 5.61286 21.4932 5.67426C21.5546 5.73565 21.5928 5.82092 21.5928 5.91506C21.5928 5.94098 21.5921 5.9669 21.5914 5.99282C21.5914 5.99282 21.5914 5.99282 21.5914 5.9935C21.5716 6.63609 21.3104 7.24048 20.8554 7.6948C19.8737 8.67642 18.2775 8.67642 17.2959 7.6948C16.9364 7.3353 16.6997 6.88304 16.6048 6.39598H16.0707C15.9186 6.39598 15.8408 6.21384 15.9466 6.10401L16.8347 5.17901C16.9023 5.10807 17.0155 5.10807 17.0837 5.17901L17.9726 6.1047C18.0776 6.21452 17.9999 6.39666 17.8484 6.39666H17.3047C17.3873 6.70226 17.5483 6.98468 17.7782 7.21456C18.4937 7.93014 19.6589 7.93014 20.3751 7.21388ZM20.6043 4.8318C20.4972 4.67763 20.5361 4.46548 20.6916 4.35906C20.8458 4.25196 21.0579 4.29085 21.1643 4.44638C21.2714 4.60054 21.2325 4.8127 21.0777 4.91911C21.0224 4.95731 20.9604 4.97641 20.8983 4.97846C20.785 4.98323 20.6732 4.93207 20.6043 4.8318ZM17.4016 4.45934C17.2774 4.31813 17.2918 4.10325 17.433 3.97978C17.5742 3.85631 17.7884 3.86996 17.9125 4.01116C18.036 4.15237 18.0224 4.36725 17.8811 4.49072C17.8198 4.54393 17.7454 4.57189 17.671 4.57462C17.5721 4.57871 17.4725 4.53915 17.4016 4.45934ZM19.8157 4.18512C19.6431 4.11076 19.5633 3.91089 19.6377 3.73831C19.7127 3.56572 19.9119 3.48591 20.0845 3.56095C20.2571 3.6353 20.3369 3.83449 20.2625 4.00708C20.2093 4.13191 20.0899 4.20763 19.9637 4.2124C19.914 4.21445 19.8642 4.20626 19.8157 4.18512ZM18.4159 3.77582C18.3866 3.59028 18.5135 3.41633 18.699 3.38699C18.8846 3.35834 19.0585 3.48454 19.0878 3.67077C19.1172 3.85632 18.9903 4.03027 18.8047 4.0596C18.7911 4.06164 18.7781 4.06301 18.7645 4.06301C18.5946 4.06983 18.4425 3.94772 18.4159 3.77582Z" fill="#4971FF"/></svg>

<svg xmlns="http://www.w3.org/2000/svg" viewBox="0 0 38 24" width="38" height="24" role="img" aria-labelledby="pi-checkout_finance"><title id="pi-checkout_finance">Checkout Finance</title><path fill="#fff" d="M0 0h38v24H0z"/><path d="M5.121 16.212a2.084 2.084 0 01-.822-.768c-.2-.328-.299-.697-.299-1.11 0-.413.1-.783.3-1.11.2-.327.473-.584.821-.768a2.477 2.477 0 011.177-.276c.366 0 .698.063.994.19.297.126.545.309.747.547l-.629.571A1.36 1.36 0 006.346 13c-.262 0-.495.057-.7.17-.207.114-.367.271-.482.473a1.371 1.371 0 00-.172.69c0 .259.057.489.172.691.115.203.275.36.481.473.206.114.439.17.701.17a1.35 1.35 0 001.064-.494l.63.571a1.969 1.969 0 01-.75.554c-.3.127-.632.19-.998.19-.431 0-.821-.092-1.17-.276zM11.525 13.524c.247.238.371.59.371 1.06v1.833h-.943v-1.69c0-.254-.056-.444-.17-.569-.113-.125-.275-.187-.489-.187-.238 0-.427.072-.569.217-.141.145-.211.36-.211.646v1.583H8.57v-4.416h.943v1.548c.125-.123.276-.217.453-.284.178-.065.37-.098.58-.098.404 0 .73.119.978.357z" fill="#2A3156"/><path fill-rule="evenodd" clip-rule="evenodd" d="M13.433 15.078h2.46l.018-.25c0-.335-.073-.627-.22-.88a1.498 1.498 0 00-.608-.579 1.833 1.833 0 00-.865-.203c-.327 0-.621.07-.885.212a1.581 1.581 0 00-.623.59 1.614 1.614 0 00-.227.847c0 .318.077.602.23.851.154.25.372.446.654.587.282.141.606.211.973.211.588 0 1.036-.172 1.342-.517l-.502-.536a1.097 1.097 0 01-.366.235c-.13.05-.28.075-.45.075-.246 0-.451-.058-.617-.173a.753.753 0 01-.314-.47zm-.013-.543a.757.757 0 01.267-.487.817.817 0 01.537-.179c.21 0 .387.06.532.182.146.12.234.282.267.484H13.42z" fill="#2A3156"/><path d="M17.117 16.253a1.596 1.596 0 01-.646-.587 1.581 1.581 0 01-.233-.851c0-.318.077-.601.233-.852.155-.25.37-.445.646-.586a2.02 2.02 0 01.935-.212c.342 0 .641.07.898.212.255.14.443.342.559.603l-.732.387c-.17-.293-.413-.44-.731-.44-.246 0-.45.08-.61.238-.162.158-.242.375-.242.649 0 .273.08.49.241.649.161.158.365.238.61.238.324 0 .567-.147.732-.44l.732.392a1.286 1.286 0 01-.56.595 1.808 1.808 0 01-.897.214 1.994 1.994 0 01-.934-.21zM21.364 15.16l-.453.441v.815h-.943V12h.943v2.5l1.378-1.286h1.124l-1.354 1.358 1.475 1.845h-1.143l-1.027-1.257z" fill="#2A3156"/><path fill-rule="evenodd" clip-rule="evenodd" d="M23.747 15.666c.153.25.366.446.638.587.272.141.58.211.922.211.342 0 .649-.07.919-.211s.482-.337.635-.587a1.6 1.6 0 00.23-.851c0-.318-.077-.602-.23-.852a1.588 1.588 0 00-.635-.586 1.95 1.95 0 00-.919-.212c-.343 0-.65.07-.922.212a1.59 1.59 0 00-.638.586 1.6 1.6 0 00-.23.852c0 .318.077.602.23.851zm2.389-.85c0 .27-.078.486-.233.646a.795.795 0 01-.596.24.803.803 0 01-.599-.24c-.157-.162-.236-.377-.236-.646 0-.27.08-.486.236-.646a.803.803 0 01.6-.241c.24 0 .44.08.595.24.155.162.233.377.233.647z" fill="#2A3156"/><path d="M30.936 13.214v3.203h-.895v-.381a1.25 1.25 0 01-.448.319c-.174.073-.36.11-.563.11-.427 0-.765-.121-1.016-.363-.25-.242-.374-.6-.374-1.077v-1.81h.943v1.672c0 .515.22.774.66.774a.715.715 0 00.543-.217c.138-.145.206-.36.206-.647v-1.583h.944zM33.85 16.262a.98.98 0 01-.342.151c-.134.034-.277.051-.426.051-.387 0-.686-.097-.898-.292-.211-.194-.317-.48-.317-.857V14h-.502v-.714h.502v-.78h.943v.78h.81V14h-.81v1.303c0 .136.035.24.106.312.07.074.17.11.299.11.15 0 .276-.039.381-.118l.254.655zM7.444 19.168v1.102h1.959v.773h-1.96v1.518h-.978v-4.166h3.198v.773h-2.22z" fill="#2A3156"/><path fill-rule="evenodd" clip-rule="evenodd" d="M10.026 18.395c0 .146.054.27.163.368.11.1.25.15.423.15.174 0 .314-.05.423-.152.109-.1.163-.23.163-.384a.453.453 0 00-.163-.357.62.62 0 00-.423-.143.605.605 0 00-.423.149.48.48 0 00-.163.369zm1.058.963h-.943v3.203h.943v-3.203z" fill="#2A3156"/><path d="M14.854 19.668c.248.238.372.591.372 1.06v1.833h-.943v-1.69c0-.254-.057-.444-.17-.569-.113-.125-.276-.187-.49-.187-.237 0-.426.072-.568.217-.141.145-.211.36-.211.646v1.583H11.9v-3.203h.902v.376a1.25 1.25 0 01.465-.312c.185-.073.389-.11.61-.11.403-.002.729.117.977.356z" fill="#2A3156"/><path fill-rule="evenodd" clip-rule="evenodd" d="M18.896 20.733c0-.476-.135-.832-.405-1.068-.27-.236-.657-.354-1.163-.356a2.91 2.91 0 00-.764.1 2.08 2.08 0 00-.638.286l.339.65a1.36 1.36 0 01.426-.218c.168-.053.337-.08.51-.08.251 0 .439.055.563.164.125.11.188.265.188.468h-.75c-.476 0-.828.085-1.055.256a.832.832 0 00-.342.703.89.89 0 00.146.5.967.967 0 00.42.345c.183.084.4.125.65.125.484 0 .815-.149.992-.446v.398h.883v-1.827zm-.943.816a.604.604 0 01-.267.325.844.844 0 01-.428.11.649.649 0 01-.39-.104.334.334 0 01-.142-.283c0-.25.193-.375.58-.375h.647v.327z" fill="#2A3156"/><path d="M22.641 19.668c.248.238.372.591.372 1.06v1.833h-.943v-1.69c0-.254-.057-.444-.17-.569-.113-.125-.276-.187-.49-.187-.237 0-.427.072-.568.217-.141.145-.212.36-.212.646v1.583h-.943v-3.203h.901v.376a1.25 1.25 0 01.466-.312c.185-.073.389-.11.61-.11.404-.002.73.117.977.356zM24.48 22.397a1.595 1.595 0 01-.647-.587 1.58 1.58 0 01-.233-.851c0-.318.077-.601.233-.852.155-.25.37-.445.647-.586.276-.141.587-.212.934-.212.342 0 .641.07.898.212.255.14.443.342.56.604l-.732.387c-.17-.294-.413-.441-.731-.441-.246 0-.45.08-.61.238-.162.158-.242.375-.242.649s.08.49.241.649c.161.158.365.238.61.238.324 0 .567-.147.732-.44l.732.392a1.284 1.284 0 01-.56.595 1.808 1.808 0 01-.898.214 1.997 1.997 0 01-.934-.21z" fill="#2A3156"/><path fill-rule="evenodd" clip-rule="evenodd" d="M28.02 21.222h2.46a8.19 8.19 0 00.018-.25c0-.335-.073-.627-.22-.88a1.5 1.5 0 00-.607-.579 1.837 1.837 0 00-.865-.203c-.326 0-.622.07-.886.212a1.583 1.583 0 00-.623.59 1.616 1.616 0 00-.227.847c0 .318.077.602.23.851.153.25.371.446.653.587.282.141.607.211.974.211.588 0 1.035-.172 1.341-.517l-.502-.536a1.097 1.097 0 01-.366.235c-.13.05-.28.075-.45.075a1.05 1.05 0 01-.616-.173.753.753 0 01-.314-.47zm-.013-.543a.757.757 0 01.266-.487.82.82 0 01.537-.179c.21 0 .388.06.533.182a.763.763 0 01.266.484h-1.602z" fill="#2A3156"/><path fill-rule="evenodd" clip-rule="evenodd" d="M22.659 1.882h-7.436a.341.341 0 00-.34.341V9.66c0 .188.152.341.34.341h7.436A.341.341 0 0023 9.659V2.223a.341.341 0 00-.341-.34zm-2.284 5.332c.332-.332.523-.773.537-1.242v-.058a.34.34 0 01.68.001v.078a2.52 2.52 0 01-4.987.402h-.534a.172.172 0 01-.124-.291l.888-.925c.067-.07.18-.07.249 0l.889.926a.173.173 0 01-.125.292h-.543a1.838 1.838 0 003.07.817zm.23-2.382a.339.339 0 01.087-.473.339.339 0 01.472.087.34.34 0 11-.56.386zm-3.203-.373a.34.34 0 11.51-.448.34.34 0 01-.51.448zm2.414-.274a.34.34 0 11.268-.625.34.34 0 01-.268.625zm-1.4-.41a.34.34 0 11.672-.105.34.34 0 01-.672.106z" fill="#4971FF"/></svg>
